icon-themes/sifr_svg/cmd/lc_overline.svg

<svg viewBox="0 0 24 24" xmlns="http://www.w3.org/2000/svg"><path d="m2 2v2h20v-2zm7 3c-2.209139 0-4 1.790861-4 4v9c0 2.209139 1.790861 4 4 4h6c2.209139 0 4-1.790861 4-4v-9c0-2.209139-1.790861-4-4-4zm0 3h6c.552285 0 1 .4477153 1 1v9c0 .552285-.447715 1-1 1h-6c-.552285 0-1-.447715-1-1v-9c0-.5522847.4477153-1 1-1z" fill="#555753"/></svg>

<svg xmlns="http://www.w3.org/2000/svg" viewBox="0 0 24 24">
  <path
     style="fill:#555753"
     d="M 2,2 V 4 H 22 V 2 Z M 9,5 C 6.790861,5 5,6.790861 5,9 v 9 c 0,2.209139 1.790861,4 4,4 h 6 c 2.209139,0 4,-1.790861 4,-4 V 9 C 19,6.790861 17.209139,5 15,5 Z m 0,3 h 6 c 0.552285,0 1,0.4477153 1,1 v 9 c 0,0.552285 -0.447715,1 -1,1 H 9 C 8.447715,19 8,18.552285 8,18 V 9 C 8,8.4477153 8.4477153,8 9,8 Z"
     />
</svg>
